!!!OTL: 1792. Der Lumpenmann.
!!!ARE: Europa, Mitteleuropa, Deutschland, Kreis Usingen
!!!SCT: E1792
!!!TXL: @@DE
!!!YEM: Copyright 1995, estate of Helmut Schaffrath.
**kern	**text
*ICvox	*
*M2/4	*
*k[f#c#]	*
*D:	*
!LO:TX:a:t=Aus dem Kreis Uſingen.	!
{8a	Jch
=1	=1
8.f#	bin
16d	der
8e	Lum-
8c#	-pen-
=2	=2
4d	-mann,
8r}	.
{8a	das
=3	=3
8a	ſeht
8d	ihr
8b/	mir
8b/	wohl
=4	=4
4e	an.
8r}	.
{8e	Jch
=5	=5
8.e	kau-
16f#	-fe
8g	Lum-
8e	-pen
=6	=6
8f#	nach
16bL	der
16aJ	.
8f#	Dik-
8e}	-ke,
=7	=7
{8.e	nach
16f#	der
8g	Dünn
8e	und
=8	=8
8f#	nach
16bL	der
16aJ	.
16aL	Län-
16gJ	.
16f#L	-ge;
16eJ}	.
=9	=9
{8d	drum
8d	geh
8e	ich
8f#	von
=10	=10
8g	Haus
8a	ʒu
8b;}	Haus
{8b	und
=11	=11
8e	ruf
8e	aus
8a	vol-
8g	-lem
=12	=12
8f#	Hal-
8e	-ſe
8d	raus
8r}	.
=13	=13
{4a;	Lum-
8f#	-pen!
8r	.
=14	=14
4a;	Lum-
8f#}	-pen!
==	==
!!!AGN: Scherz - Lied, Lumpenmann
!!!ONB: ESAC (Essen Associative Code) Database: ERK3
!!!AMT: simple duple
!!!AIN: vox
!!!EED: Helmut Schaffrath
!!!EEV: 1.0
!!!GTL: Vermischter Inhalt.
!!!URL-scan: https://rosdok.uni-rostock.de/mcrviewer/recordIdentifier/rosdok_ppn745177999/iview2/phys_0571.iview2?x=-4.404412318551749&y=1659.7261071777903&scale=0.6456904138606623&rotation=0&layout=singlePageLayout
!!!ENC: Anna Maria Matuszewska
!!!EEV: 2025/08/01
*-	*-
